X: 42752
T: White Houses Of Shieldaig, The
R: reel
M: 4/4
K: Gmajor
g|:fedf eA~A2|dedB GA (3Bcd|fedf eA~A2|1 dedB ~A3 g:|2 dedB ~A3 B||
~d2 eA A<AeA|fAed B2 GB|d2 eA A<A ef|1 gedB ~A3 B:|2 dedB ~A3 g||

